X:7385
T:The Swallowtail
O:england
R:Reel
S:Paddy Canny and Peter O'Loughlin, Clare (fiddles)
N:As played (P O'L much the louder)
H:Followed by "The Congress"
M:4/4
K:G
eA{c}BA eA{c}BA | (3Bcd ef gedB | G2BG DGBG | Bdef gafg | eA(3cBA EAcA |
(3Bcd ef g2fg | afge dBGB | cABG ABcd :| ea~a2 {b}aged | Bdef gedB | G2BG DGBG |
Bdef gafg | ea~a2 {b}aged | (3Bcd ef g2fa | (3gfe fe dBGB | cABG ABcd :|


